assets/icons/x_circle.svg

<svg width="16" height="16" viewBox="0 0 16 16" fill="none" xmlns="http://www.w3.org/2000/svg">
<path opacity="0.15" d="M9.864 3C9.99635 3.00003 10.1233 3.05253 10.217 3.146L12.853 5.782C12.8996 5.82844 12.9365 5.88361 12.9618 5.94435C12.987 6.0051 13 6.07023 13 6.136V9.864C13 9.99635 12.9475 10.1233 12.854 10.217L10.217 12.854C10.1233 12.9475 9.99635 13 9.864 13H6.136C6.0703 13.0001 6.00521 12.9873 5.94447 12.9622C5.88373 12.9372 5.82852 12.9004 5.782 12.854L3.146 10.218C3.0996 10.1715 3.06282 10.1163 3.03777 10.0555C3.01272 9.99479 2.99988 9.92971 3 9.864V6.136C2.99988 6.0703 3.01272 6.00521 3.03777 5.94447C3.06282 5.88373 3.0996 5.82852 3.146 5.782L5.782 3.146C5.82852 3.0996 5.88373 3.06282 5.94447 3.03777C6.00521 3.01272 6.0703 2.99988 6.136 3H9.864Z" fill="#DCE0E5" stroke="#DCE0E5" stroke-width="1.2" stroke-linejoin="round"/>
<path d="M9.864 3C9.99635 3.00003 10.1233 3.05253 10.217 3.146L12.853 5.782C12.8996 5.82844 12.9365 5.88361 12.9618 5.94435C12.987 6.0051 13 6.07023 13 6.136V9.864C13 9.99635 12.9475 10.1233 12.854 10.217L10.217 12.854C10.1233 12.9475 9.99635 13 9.864 13H6.136C6.0703 13.0001 6.00521 12.9873 5.94447 12.9622C5.88373 12.9372 5.82852 12.9004 5.782 12.854L3.146 10.218C3.0996 10.1715 3.06282 10.1163 3.03777 10.0555C3.01272 9.99479 2.99988 9.92971 3 9.864V6.136C2.99988 6.0703 3.01272 6.00521 3.03777 5.94447C3.06282 5.88373 3.0996 5.82852 3.146 5.782L5.782 3.146C5.82852 3.0996 5.88373 3.06282 5.94447 3.03777C6.00521 3.01272 6.0703 2.99988 6.136 3H9.864Z" stroke="#DCE0E5" stroke-width="1.2" stroke-linejoin="round"/>
<path d="M9.5 6.5L6.5 9.5M9.5 9.5L6.5 6.5" stroke="#DCE0E5" stroke-width="1.2" stroke-linecap="round"/>
</svg>

<svg xmlns="http://www.w3.org/2000/svg" width="16" height="16" fill="none"><path fill="#000" fill-opacity=".157" stroke="#000" stroke-linejoin="round" stroke-width="1.2" d="M9.864 3a.5.5 0 0 1 .353.146l2.636 2.636a.5.5 0 0 1 .147.354v3.728a.5.5 0 0 1-.146.353l-2.637 2.637a.5.5 0 0 1-.353.146H6.136a.5.5 0 0 1-.354-.146l-2.636-2.636A.5.5 0 0 1 3 9.864V6.136a.5.5 0 0 1 .146-.354l2.636-2.636A.5.5 0 0 1 6.136 3h3.728Z"/><path stroke="#000" stroke-linecap="round" stroke-width="1.2" d="m9.5 6.5-3 3m3 0-3-3"/></svg>
